web/ui/src/components/workflow/workflow-viewer/svgs/tool/enlarge-disabled.svg

<svg height="24" viewBox="0 0 24 24" width="24" xmlns="http://www.w3.org/2000/svg"><g fill="none" fill-rule="evenodd"><path d="m0 0h24v24h-24z" fill="#000" opacity="0"/><path d="m19.193645 5.05368589c3.8363433 3.97294042 3.7256095 10.30361571-.2473309 14.13995911-3.9729404 3.8363433-10.30361574 3.7256095-14.13995909-.2473309-3.83634336-3.9729404-3.72560955-10.30361574.24733088-14.13995909 3.97294042-3.83634336 10.30361571-3.72560955 14.13995911.24733088zm-7.528645 1.94631411c-.345178 0-.625.32311133-.625.72168936l-.001 3.31731064-3.31731064.001c-.39857803 0-.72168936.279822-.72168936.625s.32311133.625.72168936.625l3.31731064-.001.001 3.3193106c0 .3985781.279822.7216894.625.7216894s.625-.3231113.625-.7216894l-.001-3.3193106 3.3193106.001c.3985781 0 .7216894-.279822.7216894-.625s-.3231113-.625-.7216894-.625l-3.3193106-.001.001-3.31731064c0-.39857803-.279822-.72168936-.625-.72168936z" fill="#cdd1e3" fill-rule="nonzero"/></g></svg>

<?xml version="1.0" encoding="UTF-8"?>
<svg width="24px" height="24px" viewBox="0 0 24 24" version="1.1" xmlns="http://www.w3.org/2000/svg" xmlns:xlink="http://www.w3.org/1999/xlink">
    <title>btn_icon_enlarge_disabled</title>
    <g id="页面-1" stroke="none" stroke-width="1" fill="none" fill-rule="evenodd">
        <g id="工作流程图备份" transform="translate(-1812.000000, -28.000000)">
            <g id="btn_icon_enlarge_disabled" transform="translate(1812.000000, 28.000000)">
                <rect id="矩形" fill="#000000" opacity="0" x="0" y="0" width="24" height="24"></rect>
                <path d="M19.193645,5.05368589 C23.0299883,9.02662631 22.9192545,15.3573016 18.9463141,19.193645 C14.9733737,23.0299883 8.64269836,22.9192545 4.80635501,18.9463141 C0.970011654,14.9733737 1.08074546,8.64269836 5.05368589,4.80635501 C9.02662631,0.970011654 15.3573016,1.08074546 19.193645,5.05368589 Z M11.665,7 C11.319822,7 11.04,7.32311133 11.04,7.72168936 L11.04,7.72168936 L11.039,11.039 L7.72168936,11.04 C7.32311133,11.04 7,11.319822 7,11.665 C7,12.010178 7.32311133,12.29 7.72168936,12.29 L7.72168936,12.29 L11.039,12.289 L11.04,15.6083106 C11.04,16.0068887 11.319822,16.33 11.665,16.33 C12.010178,16.33 12.29,16.0068887 12.29,15.6083106 L12.29,15.6083106 L12.289,12.289 L15.6083106,12.29 C16.0068887,12.29 16.33,12.010178 16.33,11.665 C16.33,11.319822 16.0068887,11.04 15.6083106,11.04 L15.6083106,11.04 L12.289,11.039 L12.29,7.72168936 C12.29,7.32311133 12.010178,7 11.665,7 Z" id="形状" fill="#CDD1E3" fill-rule="nonzero"></path>
            </g>
        </g>
    </g>
</svg>
